X:223
T:Twin Peaks
C:Radim Zenkl
N:From the CD "Restless Joy" Transcription by Radim Zenkl TablEdited by Mike Stangeland
L:1/8
Q:1/4=120
M:4/4
K:A
z8 |: "A"e/c/B/A/ "E"G/A/B/e/ "D"F/E/D/d/ "A"c/A/E/F/ | "D"A/F/E/D/ "A"C/D/E/A/ "Bm"B,/D/B/A/ "E"G/A/B/c/ | 
"A"e/c/B/A/ "E"G/[A/D/]B/e/ "D"F/E/D/d/ "A"c/A/E/F/ |1 "D"A/F/E/D/ "A"C/D/E/A/ "E"G/A/(3B/c/B/ "A"Ac/d/ :|2 "D"A/F/E/D/ "A"C/D/E/A/ "E"G/A/(3B/c/B/ "A"Ae/=f/ | 
|: "F#m"f/c/f/g/ (3g/a/g/f/a/ (3"C#m"f/g/f/e/^d/ e/f/g/e/ | "F#m"f/c/f/g/ a/g/a/b/ "E"c'/e/b/e/ a/g/f/e/ | 
"F#m"f/c/f/g/ (3g/a/g/f/a/ (3"C#m"f/g/f/e/^d/ e/f/g/e/ |1 (3e/f/e/"D"d/c/ d/A/B/c/ d/A/f/a/ "E"g/f/e/=f/ :|2 (3e/f/e/"D"d/c/ d/A/B/c/ d/A/f/a/ "E"b/g/e/g/ | 
|: "A"a/e/c/A/ "E"G/A/B/e/ "D"F/E/D/d/ "A"c/A/E/F/ | "D"A/F/E/D/ "A"C/D/E/A/ "Bm"B,/D/B/A/ "E"G/A/B/c/ | 
"A"e/c/B/A/ "E"G/A/B/e/ "D"F/E/D/d/ "A"c/A/E/F/ |1 A/"D"F/E/D/ "A"C/D/E/A/ "E"G/A/(3B/c/B/ "A"Aa/f/ :|2 A/"D"F/E/D/ "A"C/D/E/A/ "E"G/A/(3B/c/B/ "A"A2 | 
"A"a/f/e/B/ c/e/c/B/ A/E/F/A/ F/E/C/B,/ | "A"A,/B,/C/E/ "D"F/D/d/A/ "E"G/A/B/e/ "A"a2 | 
 

